X:1
T:Why Will You Do Without Him?
T:Why Will You Do Without Him?
T:Ivy E. Craig, 1920
T:Frances Ridley Havergal (1836-1879)
T:Public Domain Courtesy of the Cyber Hymnal™
C:Ivy E. Craig, 1920
Z:Public Domain
Z:Courtesy of the Cyber Hymnal™
%%score ( 1 2 ) ( 3 4 )
L:1/8
Q:1/4=140
M:6/4
K:Ab
V:1 treble 
V:2 treble 
V:3 bass 
V:4 bass 
V:1
 [CE]2 | [Ec]4 [Fd]2 [Ec]4 [DG]2 | [DB]2 [CA]8 z2 | [FA]3 [FA] [FA]2 [EG]4 [DF]2 | %4
w: 1.~I|could not do with-|out Him!|Je- sus is more to|
w: 2.~You|need not do with-|out Him,|For He is pass- ing|
w: 3.~What|will you do with-|out Him?|When He hath shut the|
w: 4.~Why|should you do with-|out Him?|It is not yet too|
 [CE]6- [CE]4 ([CE][CE]) | [DG]4 [CA]2 [DB]4 [DG]2 | ([CA]4 [DB]2) [Ec]4 ([Ec][Ec]) | %7
w: me * Than *|all the rich- est,|fairest * gifts Of *|
w: by; * He~is *|wait- ing to be|gracio- * us, Only *|
w: door, * And *|you are left out-|side~be- * cause You *|
w: late; * He *|has not closed the|day~of * grace, He *|
 [=DB]4 [Dc]2 [DG]4 [DF]2 | (E6- [DE]4) ([DE][DE]) | [Fd]4 [Fd]2 [Ec]4 [DB]2 | %10
w: earth could ev- er|be. * But~the *|more I find Him|
w: wait- ing for your|cry; * He~is *|wait- ing to re-|
w: would not come be-|fore? * When *|it is no use|
w: has not shut the|gate. * He *|calls you! Oh, He|
 [CA]2 [Ec]8 ([CA][CA]) | [FA]4 [FA]2 [EG]4 [DF]2 | [CE]6- [CE]4 ([CE][CE]) | %13
w: pre- cious, And~the *|more I find Him|true, * The *|
w: ceive you— To *|make you all His|own; * Why *|
w: knock- ing, No *|use to stand and|wait, * For~the *|
w: calls you! He *|would not have you|go * An- *|
 [DF]4 [EG]2 [EA]4 [EB]2 | (c4 d2) [Ee]4 [Fd]2 | [Ec]4 [Ac]2 [Gc]4 [GB]2 | [EA]6- [EA]4 |] %17
w: more I long for|you~to * find What|He can be to|you. *|
w: will you do with-|out * Him, And|wan- der on a-|lone? *|
w: word of doom tolls|thro’~your * breast, That|ter- ri- ble, “Too|late!” *|
w: o- ther step with-|out * Him, Be-|cause He loves you|so. *|
V:2
 x2 | x12 | x12 | x12 | x12 | x12 | x12 | x12 | E6 x6 | x12 | x12 | x12 | x12 | x12 | E6 x6 | x12 | %16
 x10 |] %17
V:3
 [A,,A,]2 | [A,,A,]4 [A,,A,]2 [E,A,]4 [E,B,]2 | [A,,A,]2 [A,,A,]8 z2 | %3
 [D,A,]3 [D,A,] [D,A,]2 [D,A,]4 [D,A,]2 | [A,,A,]6- [A,,A,]4 ([A,,A,][A,,A,]) | %5
 [E,B,]4 [E,A,]2 [E,G,]4 [E,B,]2 | [A,,A,]6 [A,,A,]4 [A,,A,][A,,A,] | %7
 [B,,A,]4 [B,,A,]2 [B,,B,]4 [B,,A,]2 | [E,G,]6- [E,G,]4 [E,G,][E,G,] | %9
 [E,G,]4 [E,G,]2 [E,A,]4 [E,G,]2 | [A,,A,]2 [A,,A,]8 [A,,A,][A,,A,] | %11
 [D,A,]4 [D,A,]2 [D,A,]4 [D,A,]2 | [A,,A,]6- [A,,A,]4 ([A,,A,][A,,A,]) | %13
 [D,A,]4 [D,B,]2 [C,A,]4 [E,G,]2 | A,4 [A,B,]2 [A,C]4 [D,A,]2 | [E,A,]4 [E,E]2 [E,E]4 [E,D]2 | %16
 [A,C]6- [A,C]4 |] %17
V:4
 x2 | x12 | x12 | x12 | x12 | x12 | x12 | x12 | x12 | x12 | x12 | x12 | x12 | x12 | A,4- x8 | x12 | %16
 x10 |] %17

